usr/share/icons/biglinux-icons-material-dark/symbolic/status/network-wireless-bluetooth-symbolic.svg

<svg xmlns="http://www.w3.org/2000/svg" viewBox="0 0 22 22">
  <defs>
    <style type="text/css" id="current-color-scheme">
      .ColorScheme-Text {
        color:#232629;
      }
    </style>
  </defs>
  <g>
    <path
      d="m31 8.5v.875h.875c.75 0 1.875 1.875 1.875 1.875s-1.12461 1.849609-1.849609 1.849609h-.900391v.900391c1.499995-.0001 2.022494-.355944 2.496094-.964844l1.503906-1.785156-1.503906-1.7851562c-.4736-.6088988-.996099-.9647438-2.496094-.9648438z" />
    <path
      d="m31 9c-.624999.8749991-1.398438 1.416017-2.300781 2l.578125.916016c.597655-.416016 1.222656-1.041017 1.722656-1.666016v3.75l.900391-.375v-2.375c-.02539-1.249999-.150391-1.875-.150391-1.875z" />
    <path
      d="m31 9.375v-.875h.875c.75 0 1.875-1.875 1.875-1.875s-1.12461-1.849609-1.849609-1.849609h-.900391v-.900391c1.499995.0001 2.022494.355944 2.496094.964844l1.503906 1.785156-1.503906 1.785156c-.4736.608899-.996099.964744-2.496094.964844z" />
    <path
      d="m31 8.875c-.624999-.874999-1.398438-1.416017-2.300781-2l.578125-.916016c.597655.416016 1.222656 1.041017 1.722656 1.666016v-3.75l.900391.375v2.375c-.02539 1.249999-.150391 1.875-.150391 1.875z" />
  </g>
  <path
    d="m11 3.0332031c-3.7550062.2447498-7.12524 1.8576619-9.6171875 4.3496094l.7089844.7089844c2.3110477-2.3110477 5.4304966-3.8133909 8.9082031-4.0566407zm4 .8417969v3.75c-.499999-.624996-1.125006-1.2500016-1.722656-1.6660156l-.578125.9160156c.902338.58398 1.675787 1.1250055 2.300781 2v.125c-.624994.8749946-1.398443 1.416022-2.300781 2l.578125.916016c.59765-.416016 1.222657-1.041022 1.722656-1.666016v3.75c1.49999-.0001 2.022494-.355944 2.496094-.964844l1.503906-1.785156-1.503906-1.7851562c-.160554-.2064207-.327188-.3830889-.535156-.5273438.207968-.144255.374602-.3209231.535156-.5273438l1.503906-1.7851562-1.503906-1.7851562c-.4736-.608897-.996104-.9647438-2.496094-.9648438zm.900391.9003906c.724994 0 1.849609 1.8496094 1.849609 1.8496094s-1.125005 1.875-1.875 1.875h-.125s.125001-.625007.150391-1.875zm-4.900391 2.2695313c-2.6462748.2363594-5.0169298 1.4017351-6.7851562 3.1699221l.7070312.707031c1.5872168-1.5872468 3.7089098-2.6400173 6.078125-2.8730469zm4.75 2.3300781h.125c.749995 0 1.875 1.875 1.875 1.875s-1.124615 1.849609-1.849609 1.849609v-1.849609c-.02539-1.249994-.150391-1.875-.150391-1.875zm-4.75 1.695312c-1.5374585.2178-2.9114492.931011-3.9550781 1.97461l.7089843.708984c.8620592-.862099 1.9863951-1.462075 3.2460938-1.671875zm1 3.929688c-1.107999 0-2 .892001-2 2s.892001 2 2 2 2-.892001 2-2-.892001-2-2-2zm0 1c.553999 0 1 .446001 1 1s-.446001 1-1 1-1-.446001-1-1 .446001-1 1-1z"
    style="fill:currentColor"
    class="ColorScheme-Text" />
</svg>

<svg xmlns="http://www.w3.org/2000/svg" viewBox="0 0 22 22">
<defs>
<style id="current-color-scheme" type="text/css">
.ColorScheme-Contrast{color:#232629}
</style>
</defs>
<path d="M31 8.5v.875h.875c.75 0 1.875 1.875 1.875 1.875s-1.125 1.85-1.85 1.85H31v.9c1.5 0 2.022-.356 2.496-.965L35 11.25l-1.504-1.785C33.022 8.855 32.5 8.5 31 8.5"/>
<path d="M31 9c-.625.875-1.398 1.416-2.3 2l.577.916C29.875 11.5 30.5 10.875 31 10.25V14l.9-.375V11.25c-.025-1.25-.15-1.875-.15-1.875z"/>
<path d="M31 9.375V8.5h.875c.75 0 1.875-1.875 1.875-1.875s-1.125-1.85-1.85-1.85H31v-.9c1.5 0 2.022.356 2.496.965L35 6.625 33.496 8.41c-.474.61-.996.965-2.496.965"/>
<path d="M31 8.875c-.625-.875-1.398-1.416-2.3-2l.577-.916C29.875 6.375 30.5 7 31 7.625v-3.75l.9.375v2.375c-.025 1.25-.15 1.875-.15 1.875z"/>
<path d="M11 3.033a14.94 14.94 0 0 0-9.617 4.35l.709.709A13.94 13.94 0 0 1 11 4.035zm4 .842v3.75c-.5-.625-1.125-1.25-1.723-1.666l-.578.916c.903.584 1.676 1.125 2.301 2V9c-.625.875-1.398 1.416-2.3 2l.577.916C13.875 11.5 14.5 10.875 15 10.25V14c1.5 0 2.022-.356 2.496-.965L19 11.25l-1.504-1.785a2.4 2.4 0 0 0-.535-.527 2.4 2.4 0 0 0 .535-.528L19 6.625 17.496 4.84c-.474-.61-.996-.965-2.496-.965m.9.9c.725 0 1.85 1.85 1.85 1.85S16.625 8.5 15.875 8.5h-.125s.125-.625.15-1.875zM11 7.045a10.95 10.95 0 0 0-6.785 3.17l.707.707A9.96 9.96 0 0 1 11 8.049zm4.75 2.33h.125c.75 0 1.875 1.875 1.875 1.875s-1.125 1.85-1.85 1.85v-1.85c-.025-1.25-.15-1.875-.15-1.875M11 11.07a6.97 6.97 0 0 0-3.955 1.975l.709.709A6 6 0 0 1 11 12.082zM12 15c-1.108 0-2 .892-2 2s.892 2 2 2 2-.892 2-2-.892-2-2-2m0 1c.554 0 1 .446 1 1s-.446 1-1 1-1-.446-1-1 .446-1 1-1" class="ColorScheme-Contrast" style="fill:currentColor"/>
</svg>
